X:5030
T:The New Arrival (For Joanna and Bob)
M:6/8
L:1/8
Q:220
C:Aidan Crossey
R:Jig
K:Am
|:e2A c2A|cde c2A|BcB A2G|Bcd e2d|
e2A c2A|cde c2A|Bcd e2d|1 c2A ABc:||
2 c2A A2B|
|:c2c cBc|dcd BAG|cBc dcd|ede age|
c2c cBc|dcd BAG|age dcB|1 A3 A2B:||
2 A3 z3|
